assets/home/icon_night.svg

<svg class="icon" height="200" version="1.1" viewBox="0 0 1024 1024" width="200"
  xmlns="http://www.w3.org/2000/svg">
  <path
    d="M513.28 981.333333c-10.666667 0-21.76-0.426667-32.853333-1.28C247.466667 964.266667 59.733333 776.533333 43.946667 543.573333c-17.066667-249.6 163.413333-469.333333 410.88-500.48a52.181333 52.181333 0 0 1 43.946666 88.32 278.869333 278.869333 0 0 0-76.8 229.973334c15.36 123.733333 116.48 224.853333 240.213334 240.213333 85.333333 10.666667 168.96-17.493333 229.973333-76.8 16.213333-15.36 40.106667-19.2 59.733333-9.386667 20.053333 9.813333 31.573333 31.573333 28.586667 53.333334C951.466667 805.973333 749.226667 981.333333 513.28 981.333333zM381.013333 148.053333a386.56 386.56 0 0 0-252.16 389.546667c13.226667 190.72 166.826667 344.32 357.546667 357.546667 174.506667 11.946667 331.946667-94.293333 389.546667-252.16a364.8 364.8 0 0 1-224 43.093333c-161.706667-20.48-293.973333-152.32-314.453334-314.453333-9.813333-78.506667 5.973333-156.16 43.52-223.573334z"></path>
</svg>

<svg class="icon" height="200" viewBox="0 0 1024 1024" width="200" xmlns="http://www.w3.org/2000/svg"><path d="M513.28 981.333c-10.667 0-21.76-.426-32.853-1.28-232.96-15.786-420.694-203.52-436.48-436.48C26.88 293.973 207.36 74.24 454.827 43.093a52.181 52.181 0 0 1 43.946 88.32 278.87 278.87 0 0 0-76.8 229.974C437.333 485.12 538.453 586.24 662.187 601.6c85.333 10.667 168.96-17.493 229.973-76.8 16.213-15.36 40.107-19.2 59.733-9.387 20.054 9.814 31.574 31.574 28.587 53.334-29.013 237.226-231.253 412.586-467.2 412.586zm-132.267-833.28A386.56 386.56 0 0 0 128.853 537.6C142.08 728.32 295.68 881.92 486.4 895.147c174.507 11.946 331.947-94.294 389.547-252.16a364.8 364.8 0 0 1-224 43.093C490.24 665.6 357.973 533.76 337.493 371.627c-9.813-78.507 5.974-156.16 43.52-223.574z"/></svg>
